X: 20415
T: John Dwyer's
R: reel
M: 4/4
K: Gmajor
ge|dB~B2 GEDE|GB~B2 dBGB|~A2GB AGED|EGAB A2Bc|
dB~B2 GEDE|~G2GB dBG2|ABBA BedB|AGAB G2:|
ga|bg~g2 bgdg|af~f2 afdf|bg~g2 agfg|eage ~a2ga|
b2bg agef|gage dBG2|ABBA BedB|AGAB G2:|

